images/mult/top.svg

<svg width="218" height="193" viewBox="0 0 218 193" fill="none" xmlns="http://www.w3.org/2000/svg">
<path fill-rule="evenodd" clip-rule="evenodd" d="M195.256 104.269C187.485 100.148 179.656 97.1271 171.824 94.5698C159.621 90.5931 147.412 88.3333 135.133 87.6607C121.147 86.9021 107.2 88.1909 93.3641 90.8269C79.5849 93.4612 65.9479 97.373 52.7118 102.429C51.5307 102.882 50.3978 103.414 49.1792 103.765C48.499 103.957 47.8402 104.103 47.1689 104.215C56.8416 106.019 70.3479 107.724 80.7552 109.432C87.6228 110.57 93.0856 111.762 95.3632 112.197C95.788 112.253 96.1029 112.639 96.0536 113.081C96.0149 113.5 95.6131 113.821 95.1883 113.765C92.8533 113.698 87.2748 113.762 80.3343 113.421C73.5715 113.092 65.5933 112.285 58.1112 111.623C48.4791 110.768 39.7467 109.794 35.5959 108.871C35.0488 108.745 34.5831 108.473 34.1493 108.497C32.2534 108.577 31.9395 108.037 31.0871 108.023C29.5646 107.599 29.5859 106.242 29.0268 105.349C27.9691 103.676 28.8307 101.567 30.3554 99.6383C31.4237 98.3015 34.9473 97.0454 36.3958 95.8002C41.7126 91.3028 47.1625 86.853 52.9227 82.8287C58.0775 79.2003 63.4294 75.8464 68.8856 72.724C72.5436 70.6284 76.2596 68.7428 79.9925 66.8509C80.3442 66.7603 80.646 66.5337 81.0244 66.5681C83.1156 66.7056 82.6003 67.2418 84.5457 68.0303C84.7198 67.9278 84.9393 68.0013 85.0356 68.1587C85.1382 68.333 85.0818 68.5464 84.9077 68.6489C84.6513 70.7281 85.3378 70.553 84.4183 72.4519C84.2789 72.7536 83.9691 72.906 83.7369 73.1648C76.716 77.8449 69.9501 83.0096 63.0977 88.1482C61.0189 89.7214 58.9339 91.2776 56.8551 92.8508C67.6585 88.4575 78.7659 84.8391 90.0662 82.4796C99.7357 80.4495 109.552 79.2905 119.344 79.2195C135.595 79.0688 151.898 81.5204 167.514 87.7122C177.233 91.5804 186.508 97.0185 195.572 103.768C195.707 103.872 195.752 104.048 195.671 104.194C195.567 104.329 195.391 104.374 195.256 104.269Z" fill="#FF5100"/>
</svg>

<svg width="218" height="193" fill="none" xmlns="http://www.w3.org/2000/svg"><path fill-rule="evenodd" clip-rule="evenodd" d="M195.256 104.269c-7.771-4.121-15.6-7.142-23.432-9.7-12.203-3.976-24.412-6.236-36.691-6.908-13.986-.759-27.933.53-41.769 3.166-13.78 2.634-27.416 6.546-40.652 11.602-1.181.453-2.314.985-3.533 1.336-.68.192-1.339.338-2.01.45 9.673 1.804 23.179 3.509 33.586 5.217 6.868 1.138 12.33 2.33 14.608 2.765a.8.8 0 01.69.884.777.777 0 01-.865.684c-2.335-.067-7.913-.003-14.854-.344-6.763-.329-14.74-1.136-22.223-1.798-9.632-.855-18.364-1.829-22.515-2.752-.547-.126-1.013-.398-1.447-.374-1.896.08-2.21-.46-3.062-.474-1.522-.424-1.501-1.781-2.06-2.674-1.058-1.673-.196-3.782 1.328-5.71 1.069-1.337 4.592-2.594 6.04-3.839 5.318-4.497 10.767-8.947 16.528-12.971 5.154-3.629 10.506-6.983 15.963-10.105 3.658-2.096 7.374-3.981 11.107-5.873.351-.09.653-.317 1.031-.283 2.092.138 1.576.674 3.522 1.462a.366.366 0 01.49.129.353.353 0 01-.128.49c-.257 2.08.43 1.904-.49 3.803-.14.302-.449.454-.681.713-7.021 4.68-13.787 9.845-20.64 14.983-2.078 1.573-4.163 3.13-6.242 4.703 10.804-4.394 21.91-8.012 33.211-10.371 9.67-2.03 19.486-3.19 29.278-3.26 16.251-.151 32.554 2.3 48.17 8.492 9.719 3.868 18.994 9.306 28.058 16.056.135.104.18.28.099.426-.104.135-.28.18-.415.075z" fill="#FF5100"/></svg>
